gama.ui.shared/icons_svg/dark/views/tabs/view.test.svg

<?xml version="1.0" encoding="UTF-8" standalone="no"?>
<!DOCTYPE svg PUBLIC "-//W3C//DTD SVG 1.1//EN" "http://www.w3.org/Graphics/SVG/1.1/DTD/svg11.dtd">
<svg xmlns="http://www.w3.org/2000/svg" xmlns:dc="http://purl.org/dc/elements/1.1/" version="1.1" xmlns:xl="http://www.w3.org/1999/xlink" viewBox="-459.35776 -2973.7685 24.75 24.75" width="24.75" height="24.75">
  <defs/>
  <g id="SOURCES" fill="none" stroke="none" stroke-dasharray="none" fill-opacity="1" stroke-opacity="1">
    <title>SOURCES</title>
    <g id="SOURCES_Dark">
      <title>Dark</title>
      <g id="Group_12702">
        <g id="Graphic_11022">
          <path d="M -449.36276 -2955.5835 L -450.83276 -2957.0535 L -452.30276 -2955.5835 C -451.89676 -2955.2755 -451.38576 -2955.0935 -450.83276 -2955.0935 C -450.27976 -2955.0935 -449.77576 -2955.2755 -449.36276 -2955.5835 Z M -448.87276 -2956.0735 C -448.56476 -2956.4795 -448.38276 -2956.9905 -448.38276 -2957.5435 C -448.38276 -2958.0965 -448.56476 -2958.6005 -448.87276 -2959.0135 L -450.34276 -2957.5435 L -448.87276 -2956.0735 Z M -452.79276 -2959.0135 C -453.10076 -2958.6075 -453.28276 -2958.0965 -453.28276 -2957.5435 C -453.28276 -2956.9905 -453.10076 -2956.4865 -452.79276 -2956.0735 L -451.32276 -2957.5435 L -452.79276 -2959.0135 Z M -452.30276 -2959.5035 L -450.83276 -2958.0335 L -449.36276 -2959.5035 C -449.76876 -2959.8115 -450.27976 -2959.9935 -450.83276 -2959.9935 C -451.38576 -2959.9935 -451.88976 -2959.8115 -452.30276 -2959.5035 Z M -450.83276 -2962.0935 C -452.57576 -2962.0935 -453.98276 -2963.5005 -453.98276 -2965.2435 C -453.98276 -2966.9865 -452.57576 -2968.3935 -450.83276 -2968.3935 C -449.08976 -2968.3935 -447.68276 -2966.9865 -447.68276 -2965.2435 C -447.68276 -2963.5005 -449.08976 -2962.0935 -450.83276 -2962.0935 Z M -450.83276 -2962.7935 C -449.48176 -2962.7935 -448.38276 -2963.8925 -448.38276 -2965.2435 C -448.38276 -2966.5945 -449.48176 -2967.6935 -450.83276 -2967.6935 C -452.18376 -2967.6935 -453.28276 -2966.5945 -453.28276 -2965.2435 C -453.28276 -2963.8925 -452.18376 -2962.7935 -450.83276 -2962.7935 Z M -450.05576 -2966.1605 C -449.93676 -2966.3145 -449.71276 -2966.3355 -449.56576 -2966.2165 C -449.41176 -2966.0975 -449.39076 -2965.8735 -449.50976 -2965.7265 L -450.90976 -2963.9765 C -451.04276 -2963.8155 -451.28076 -2963.8015 -451.42776 -2963.9485 L -452.12776 -2964.6485 C -452.26776 -2964.7885 -452.26776 -2965.0055 -452.12776 -2965.1455 C -451.98776 -2965.2855 -451.77076 -2965.2855 -451.63076 -2965.1455 L -451.21076 -2964.7255 L -450.05576 -2966.1675 Z M -445.93276 -2965.5935 C -446.12876 -2965.5935 -446.28276 -2965.7475 -446.28276 -2965.9435 C -446.28276 -2966.1395 -446.12876 -2966.2935 -445.93276 -2966.2935 L -440.33276 -2966.2935 C -440.13676 -2966.2935 -439.98276 -2966.1395 -439.98276 -2965.9435 C -439.98276 -2965.7475 -440.13676 -2965.5935 -440.33276 -2965.5935 Z M -445.93276 -2964.1935 C -446.12876 -2964.1935 -446.28276 -2964.3475 -446.28276 -2964.5435 C -446.28276 -2964.7395 -446.12876 -2964.8935 -445.93276 -2964.8935 L -441.73276 -2964.8935 C -441.53676 -2964.8935 -441.38276 -2964.7395 -441.38276 -2964.5435 C -441.38276 -2964.3475 -441.53676 -2964.1935 -441.73276 -2964.1935 Z M -450.83276 -2954.3935 C -452.57576 -2954.3935 -453.98276 -2955.8005 -453.98276 -2957.5435 C -453.98276 -2959.2865 -452.57576 -2960.6935 -450.83276 -2960.6935 C -449.08976 -2960.6935 -447.68276 -2959.2865 -447.68276 -2957.5435 C -447.68276 -2955.8005 -449.08976 -2954.3935 -450.83276 -2954.3935 Z M -445.93276 -2957.8935 C -446.12876 -2957.8935 -446.28276 -2958.0475 -446.28276 -2958.2435 C -446.28276 -2958.4395 -446.12876 -2958.5935 -445.93276 -2958.5935 L -440.33276 -2958.5935 C -440.13676 -2958.5935 -439.98276 -2958.4395 -439.98276 -2958.2435 C -439.98276 -2958.0475 -440.13676 -2957.8935 -440.33276 -2957.8935 Z M -445.93276 -2956.4935 C -446.12876 -2956.4935 -446.28276 -2956.6475 -446.28276 -2956.8435 C -446.28276 -2957.0395 -446.12876 -2957.1935 -445.93276 -2957.1935 L -441.73276 -2957.1935 C -441.53676 -2957.1935 -441.38276 -2957.0395 -441.38276 -2956.8435 C -441.38276 -2956.6475 -441.53676 -2956.4935 -441.73276 -2956.4935 Z" fill="#c0e0ff"/>
        </g>
        <g id="Graphic_12687"/>
      </g>
    </g>
  </g>
</svg>

<svg height="24.75" viewBox="-459.358 -2973.769 24.75 24.75" width="24.75" xmlns="http://www.w3.org/2000/svg"><path d="m-449.36276-2955.5835-1.47-1.47-1.47 1.47c.406.308.917.49 1.47.49s1.057-.182 1.47-.49zm.49-.49c.308-.406.49-.917.49-1.47s-.182-1.057-.49-1.47l-1.47 1.47zm-3.92-2.94c-.308.406-.49.917-.49 1.47s.182 1.057.49 1.47l1.47-1.47zm.49-.49 1.47 1.47 1.47-1.47c-.406-.308-.917-.49-1.47-.49s-1.057.182-1.47.49zm1.47-2.59c-1.743 0-3.15-1.407-3.15-3.15s1.407-3.15 3.15-3.15 3.15 1.407 3.15 3.15-1.407 3.15-3.15 3.15zm0-.7c1.351 0 2.45-1.099 2.45-2.45s-1.099-2.45-2.45-2.45-2.45 1.099-2.45 2.45 1.099 2.45 2.45 2.45zm.777-3.367c.119-.154.343-.175.49-.056.154.119.175.343.056.49l-1.4 1.75c-.133.161-.371.175-.518.028l-.7-.7c-.14-.14-.14-.357 0-.497s.357-.14.497 0l.42.42 1.155-1.442zm4.123.567c-.196 0-.35-.154-.35-.35s.154-.35.35-.35h5.6c.196 0 .35.154.35.35s-.154.35-.35.35zm0 1.4c-.196 0-.35-.154-.35-.35s.154-.35.35-.35h4.2c.196 0 .35.154.35.35s-.154.35-.35.35zm-4.9 9.8c-1.743 0-3.15-1.407-3.15-3.15s1.407-3.15 3.15-3.15 3.15 1.407 3.15 3.15-1.407 3.15-3.15 3.15zm4.9-3.5c-.196 0-.35-.154-.35-.35s.154-.35.35-.35h5.6c.196 0 .35.154.35.35s-.154.35-.35.35zm0 1.4c-.196 0-.35-.154-.35-.35s.154-.35.35-.35h4.2c.196 0 .35.154.35.35s-.154.35-.35.35z" fill="#c0e0ff"/></svg>
